X: 1
T: Polka de l'Aveyron
C: Trad
R: Polka
O: French
M: 2/4
L: 1/8
K: G
Z: ABC transcription by Verge Roller
r: 32
|: "G" DE/F/ GG | "D" F/G/A/F/ "G" G2 | "C" A/B/c/A/ "G" BG | "C" AG "D" F/E/D |
"G" DE/F/ GG | "D" F/G/A/F/ "G" G2 | "C" A/B/c/A/ "G" BG | "D" AF "G" G2 :|
|: "D" AB/c/ "G" dd | "C" cB "D" A>B | "C" cA "G" BG | "C" AG "D" F/E/D |
"D" AB/c/ "G" dd | "C" cB "D" A>B | "C" cA "G" BG | "D" AF "G" G2 :|
